svg/filled/flip-vertical.svg

<svg width="24" height="24" viewBox="0 0 24 24" fill="none" xmlns="http://www.w3.org/2000/svg">
<path fill-rule="evenodd" clip-rule="evenodd" d="M7.49976 4.25001C7.91398 4.25001 8.24976 4.5858 8.24976 5.00001L8.24976 17.2266L10.4775 15.0636C10.7747 14.775 11.2495 14.782 11.538 15.0792C11.8266 15.3763 11.8196 15.8512 11.5224 16.1397L8.02243 19.5381C7.73142 19.8207 7.26851 19.8207 6.9775 19.5381L3.47751 16.1397C3.18034 15.8512 3.17335 15.3763 3.4619 15.0792C3.75044 14.782 4.22527 14.775 4.52244 15.0636L6.74976 17.2262L6.74976 5.00001C6.74976 4.5858 7.08555 4.25001 7.49976 4.25001Z" fill="black"/>
<path fill-rule="evenodd" clip-rule="evenodd" d="M15.9773 4.4619C16.2683 4.17934 16.7312 4.17934 17.0222 4.4619L20.5222 7.86029C20.8193 8.14884 20.8263 8.62366 20.5378 8.92083C20.2492 9.21801 19.7744 9.225 19.4772 8.93645L17.2497 6.7736L17.2497 19C17.2497 19.4142 16.9139 19.75 16.4997 19.75C16.0855 19.75 15.7497 19.4142 15.7497 19L15.7497 6.77358L13.5222 8.93645C13.225 9.225 12.7502 9.21801 12.4616 8.92083C12.1731 8.62366 12.1801 8.14884 12.4773 7.86029L15.9773 4.4619Z" fill="black"/>
</svg>

<svg xmlns="http://www.w3.org/2000/svg" viewBox="0 0 24 24" fill="currentColor">
  <path fill-rule="evenodd" d="M7.5 4.25a.75.75 0 01.75.75v12.227l2.227-2.163a.75.75 0 111.045 1.076l-3.5 3.398a.75.75 0 01-1.045 0l-3.5-3.398a.75.75 0 111.045-1.076l2.228 2.162V5a.75.75 0 01.75-.75zM15.977 4.462a.75.75 0 011.045 0l3.5 3.398a.75.75 0 01-1.045 1.076L17.25 6.774V19a.75.75 0 01-1.5 0V6.774l-2.228 2.162a.75.75 0 01-1.045-1.076l3.5-3.398z" clip-rule="evenodd"/>
</svg>
